Origami/16x16/apps/solaar.svg

<svg width="16" height="16" version="1" xmlns="http://www.w3.org/2000/svg">
 <rect transform="matrix(0,-1,-1,0,0,0)" x="-16" y="-16" width="16" height="16" rx=".8" ry=".8" style="fill:#029499"/>
 <path d="m5.8652344 2.3046875l-1.7304688 1 1.5878906 2.7480469a3 3 0 0 0 -0.5488281 0.9472656h-3.1738281v2h3.1757812a3 3 0 0 0 0.546875 0.9433594l-1.5878906 2.7519526 1.7304688 1 1.5878906-2.75a3 3 0 0 0 0.546875 0.054688 3 3 0 0 0 0.546875 -0.052734l1.587891 2.748046 1.730468-1-1.58789-2.7480464a3 3 0 0 0 0.548828 -0.9472656h3.173828v-2h-3.175781a3 3 0 0 0 -0.546875 -0.9433594l1.58789-2.7519531-1.730468-1-1.587891 2.75a3 3 0 0 0 -0.546875 -0.0546875 3 3 0 0 0 -0.546875 0.0527344l-1.5878906-2.7480469zm2.1347656 3.6953125a2 2 0 0 1 2 2 2 2 0 0 1 -2 2 2 2 0 0 1 -2 -2 2 2 0 0 1 2 -2z" style="fill:#ffffff"/>
</svg>

<svg xmlns="http://www.w3.org/2000/svg" width="16" height="16" version="1">
 <rect style="fill:#029499" width="16" height="16" x="-16" y="-16" rx=".8" ry=".8" transform="matrix(0,-1,-1,0,0,0)"/>
 <path style="fill:#ffffff" d="M 5.8652344 2.3046875 L 4.1347656 3.3046875 L 5.7226562 6.0527344 A 3 3 0 0 0 5.1738281 7 L 2 7 L 2 9 L 5.1757812 9 A 3 3 0 0 0 5.7226562 9.9433594 L 4.1347656 12.695312 L 5.8652344 13.695312 L 7.453125 10.945312 A 3 3 0 0 0 8 11 A 3 3 0 0 0 8.546875 10.947266 L 10.134766 13.695312 L 11.865234 12.695312 L 10.277344 9.9472656 A 3 3 0 0 0 10.826172 9 L 14 9 L 14 7 L 10.824219 7 A 3 3 0 0 0 10.277344 6.0566406 L 11.865234 3.3046875 L 10.134766 2.3046875 L 8.546875 5.0546875 A 3 3 0 0 0 8 5 A 3 3 0 0 0 7.453125 5.0527344 L 5.8652344 2.3046875 z M 8 6 A 2 2 0 0 1 10 8 A 2 2 0 0 1 8 10 A 2 2 0 0 1 6 8 A 2 2 0 0 1 8 6 z"/>
</svg>
